build/assets/images/proyectos/logos/logo-helvetia-g.svg

<svg width="200" height="200" viewBox="0 0 200 200" fill="none" xmlns="http://www.w3.org/2000/svg">
<rect width="200" height="200" fill="white"/>
<g clip-path="url(#clip0)">
<path d="M25.8182 81.9697V91.5859H25.899C27.1919 89.8081 28.8081 89 30.9899 89C35.0303 89 36.9697 91.7475 36.9697 95.7879V105.727H31.3131V97.4041C31.3131 95.5455 31.0707 93.5253 28.7273 93.5253C26.4646 93.5253 25.7374 95.4647 25.7374 97.4041V105.727H20.0808V81.9697H25.8182Z" fill="black"/>
<path d="M50.9495 95.2222C50.707 93.6869 49.2525 92.6364 47.7171 92.6364C46.101 92.6364 44.7272 93.5252 44.3232 95.2222H50.9495ZM56.2828 98.5353H44.3232C44.3232 100.879 45.5353 102.172 47.8788 102.172C49.0909 102.172 49.9798 101.768 50.6262 100.717H56.1212C55.2323 104.515 51.5959 106.293 47.9596 106.293C42.6262 106.293 38.6666 103.222 38.6666 97.6465C38.6666 92.2323 42.303 89 47.5555 89C53.1313 89 56.2828 92.4747 56.2828 97.9697V98.5353Z" fill="black"/>
<path d="M57.899 105.727H63.5556V81.9697H57.899V105.727" fill="black"/>
<path d="M74.3838 97.8081L78.1818 89.4849H84.5657L76.2424 105.727H72.5253L64.1212 89.4849H70.5051L74.3838 97.8081Z" fill="black"/>
<path d="M95.4747 95.2222C95.2323 93.6869 93.7778 92.6364 92.2424 92.6364C90.6262 92.6364 89.2525 93.5252 88.8485 95.2222H95.4747ZM100.727 98.5353H88.7676C88.7676 100.879 89.9798 102.172 92.3232 102.172C93.5353 102.172 94.4242 101.768 95.0707 100.717H100.566C99.6767 104.515 96.0404 106.293 92.404 106.293C87.0707 106.293 83.1111 103.222 83.1111 97.6465C83.1111 92.2323 86.7474 89 92 89C97.5757 89 100.727 92.4747 100.727 97.9697V98.5353Z" fill="black"/>
<path d="M109.131 105.727H103.475V94.2525H101.616V89.4848H103.475V84.6364H109.131V89.4848H112.364V94.2525H109.131V105.727" fill="black"/>
<path d="M119.071 105.727H113.414V89.4849H119.071V105.727ZM119.475 84.3939C119.475 86.1717 118.02 87.6263 116.323 87.6263C114.545 87.6263 113.172 86.1717 113.172 84.3939C113.172 82.6162 114.626 81.1616 116.323 81.1616C118.02 81.1616 119.475 82.6162 119.475 84.3939Z" fill="black"/>
<path d="M126.586 97.6465C126.586 99.6667 127.96 101.283 130.222 101.283C132.566 101.283 133.859 99.6667 133.859 97.6465C133.859 95.6263 132.485 94.0101 130.222 94.0101C127.96 93.9293 126.586 95.6263 126.586 97.6465ZM139.434 105.727H133.778V103.949H133.697C132.727 105.566 130.707 106.293 128.849 106.293C124.081 106.293 120.768 102.253 120.768 97.6465C120.768 93.0404 124.081 89 128.768 89C130.626 89 132.566 89.7273 133.697 91.101V89.4848H139.354V105.727" fill="black"/>
<path d="M153.091 100.151L159.475 98.4545L160.849 95.2222L158.02 88.5959L157.374 90.2121L153.091 100.151Z" fill="black"/>
<path d="M167.394 79.3838L164.727 73.3232L158.263 74.7778L160.849 80.9192L167.394 79.3838Z" fill="black"/>
<path d="M157.535 87.6262L157.616 87.3838L160.202 81.404L157.616 75.5858L147.515 99.505L152.121 100.313L157.535 87.6262Z" fill="black"/>
<path d="M160.202 81.404L160.04 81.0808L157.697 75.505L157.616 75.5858L160.202 81.404Z" fill="black"/>
<path d="M159.636 99.3434L154.384 100.636L163.758 102.333L162.788 99.909L159.636 99.3434Z" fill="black"/>
<path d="M152.202 101.202L150.424 100.879H150.505L147.111 100.232L145.01 105.404L166.828 109.364L164.242 103.303L152.202 101.202Z" fill="black"/>
<path d="M150.586 100.798L147.111 100.232L150.505 100.879L150.586 100.798Z" fill="black"/>
<path d="M150.505 100.879H150.424L152.202 101.202L152.121 101.121L150.505 100.879Z" fill="black"/>
<path d="M152.606 101.202L152.364 101.121L152.202 101.202L164.242 103.303V103.222L152.606 101.202Z" fill="black"/>
<path d="M152.202 101.202L152.364 101.121H152.121L152.202 101.202Z" fill="black"/>
<path d="M152.121 101.121L150.586 100.798L150.505 100.879L152.121 101.121Z" fill="black"/>
<path d="M152.364 101.121L152.606 101.202L152.364 101.121Z" fill="black"/>
<path d="M161.172 81.7272L162.788 85.4444L173.535 110.495L179.919 108.636L167.717 80.1919L164.485 80.9192L161.172 81.7272Z" fill="black"/>
<path d="M164.485 80.9192L167.717 80.1919L164.485 80.9192Z" fill="black"/>
<path d="M158.505 87.5455L161.737 95.1415V95.2223L164.889 102.495L166.101 105.404L167.879 109.525L172.646 110.414L165.455 93.6061L160.606 82.5354L158.505 87.5455Z" fill="black"/>
<path d="M161.737 95.2222V95.1414L158.505 87.5454L158.424 87.6262L161.737 95.2222Z" fill="black"/>
<path d="M160.606 82.5354V82.4546L158.424 87.4647L158.505 87.5455L160.606 82.5354Z" fill="black"/>
<path d="M158.424 87.6262L158.505 87.5454L158.424 87.4646V87.5454V87.6262Z" fill="black"/>
<path d="M164.889 102.495L166.101 105.404L164.889 102.495Z" fill="black"/>
<path d="M172.647 110.414L165.455 93.6061L172.647 110.414Z" fill="black"/>
</g>
<path d="M59.5876 125.781H60.433V118.67H59.5876V125.781Z" fill="black"/>
<path d="M62.072 125.781H62.8278V123.484C62.8278 122.996 62.8278 122.629 63.0864 122.31C63.335 122.002 63.7229 121.833 64.1705 121.833C64.9661 121.833 65.354 122.27 65.354 123.166V125.781H66.1099V122.758C66.1099 121.753 65.4733 121.176 64.439 121.176C63.7428 121.176 63.2058 121.445 62.8179 122.022V118.252H62.072V125.781Z" fill="black"/>
<path d="M67.618 125.781H68.3739V123.613C68.3739 122.449 68.7717 121.873 69.5773 121.873C69.7166 121.873 69.8757 121.902 70.0448 121.962L70.3033 121.276C70.1343 121.216 69.9652 121.186 69.7862 121.186C69.1099 121.186 68.6922 121.505 68.2943 122.261V121.336H67.618V125.781Z" fill="black"/>
<path d="M75.0632 123.673V123.524C75.0632 122.052 74.2277 121.167 72.9249 121.167C71.6319 121.167 70.707 122.141 70.707 123.544C70.707 124.996 71.622 125.97 72.9746 125.97C73.8896 125.97 74.5858 125.562 75.0333 124.757L74.4565 124.369C74.0885 125.015 73.6111 125.334 73.0144 125.334C72.1591 125.334 71.5424 124.707 71.5424 123.742V123.673H75.0632ZM74.2476 123.056H71.5424C71.622 122.3 72.169 121.833 72.895 121.833C73.7006 121.833 74.1979 122.27 74.2476 123.056Z" fill="black"/>
<path d="M81.8023 121.833L80.7878 121.385C80.1413 121.107 79.833 120.749 79.833 120.242C79.833 119.635 80.2806 119.207 80.9171 119.207C81.4243 119.207 81.8122 119.486 82.1205 120.023L82.8167 119.575C82.4686 118.869 81.8321 118.501 80.9768 118.501C79.7932 118.501 78.9777 119.257 78.9777 120.252C78.9777 121.117 79.4352 121.733 80.38 122.131L81.2453 122.499C81.9813 122.817 82.3493 123.285 82.3493 123.921C82.3493 124.697 81.7824 125.244 80.927 125.244C80.211 125.244 79.7236 124.797 79.5148 123.931L78.7489 124.309C79.0175 125.364 79.8032 125.96 80.927 125.96C82.2995 125.96 83.2046 125.085 83.2046 123.782C83.2046 122.887 82.7371 122.231 81.8023 121.833Z" fill="black"/>
<path d="M87.657 124.727C87.1895 125.065 86.7618 125.234 86.2845 125.234C85.3595 125.234 84.6932 124.518 84.6932 123.623C84.6932 122.569 85.3695 121.912 86.3441 121.912C86.7817 121.912 87.1995 122.052 87.5774 122.3V121.485C87.1696 121.286 86.6922 121.176 86.1949 121.176C84.8622 121.176 83.8776 122.151 83.8776 123.603C83.8776 125.006 84.7827 125.97 86.1651 125.97C86.742 125.97 87.2492 125.851 87.657 125.612V124.727Z" fill="black"/>
<path d="M88.7134 125.781H89.4692V123.484C89.4692 122.996 89.4692 122.629 89.7278 122.31C89.9765 122.002 90.3643 121.833 90.8119 121.833C91.6075 121.833 91.9954 122.27 91.9954 123.166V125.781H92.7513V122.758C92.7513 121.753 92.1148 121.176 91.0804 121.176C90.3842 121.176 89.8472 121.445 89.4593 122.022V118.252H88.7134V125.781Z" fill="black"/>
<path d="M96.9746 121.176H96.8552L95.5026 124.369L94.3191 121.336H93.4737L95.4529 126.06L96.9149 122.648L98.3769 126.06L100.356 121.336H99.5008L98.3073 124.369L96.9746 121.176Z" fill="black"/>
<path d="M105.104 123.673V123.524C105.104 122.052 104.269 121.167 102.966 121.167C101.673 121.167 100.748 122.141 100.748 123.544C100.748 124.996 101.663 125.97 103.015 125.97C103.93 125.97 104.627 125.562 105.074 124.757L104.497 124.369C104.129 125.015 103.652 125.334 103.055 125.334C102.2 125.334 101.583 124.707 101.583 123.742V123.673H105.104ZM104.288 123.056H101.583C101.663 122.3 102.21 121.833 102.936 121.833C103.741 121.833 104.239 122.27 104.288 123.056Z" fill="black"/>
<path d="M106.284 125.781H107.04V121.336H106.284V125.781ZM106.105 119.197C106.105 119.516 106.354 119.754 106.662 119.754C106.97 119.754 107.219 119.516 107.219 119.207C107.219 118.899 106.97 118.64 106.662 118.64C106.354 118.64 106.105 118.889 106.105 119.197Z" fill="black"/>
<path d="M108.027 125.781H111.895V125.115H109.369L111.915 121.336H108.186V122.002H110.573L108.027 125.781Z" fill="black"/>
<path d="M116.905 123.673V123.524C116.905 122.052 116.069 121.167 114.766 121.167C113.473 121.167 112.548 122.141 112.548 123.544C112.548 124.996 113.463 125.97 114.816 125.97C115.731 125.97 116.427 125.562 116.875 124.757L116.298 124.369C115.93 125.015 115.453 125.334 114.856 125.334C114.001 125.334 113.384 124.707 113.384 123.742V123.673H116.905ZM116.089 123.056H113.384C113.463 122.3 114.01 121.833 114.737 121.833C115.542 121.833 116.039 122.27 116.089 123.056Z" fill="black"/>
<path d="M118.055 125.781H118.811V123.613C118.811 122.449 119.209 121.873 120.014 121.873C120.154 121.873 120.313 121.902 120.482 121.962L120.74 121.276C120.571 121.216 120.402 121.186 120.223 121.186C119.547 121.186 119.129 121.505 118.731 122.261V121.336H118.055V125.781Z" fill="black"/>
<path d="M126.574 126.06L129.567 118.67H128.652L126.574 124.11L124.485 118.67H123.57L126.574 126.06Z" fill="black"/>
<path d="M133.649 123.673V123.524C133.649 122.052 132.814 121.167 131.511 121.167C130.218 121.167 129.293 122.141 129.293 123.544C129.293 124.996 130.208 125.97 131.56 125.97C132.475 125.97 133.172 125.562 133.619 124.757L133.042 124.369C132.674 125.015 132.197 125.334 131.6 125.334C130.745 125.334 130.128 124.707 130.128 123.742V123.673H133.649ZM132.833 123.056H130.128C130.208 122.3 130.755 121.833 131.481 121.833C132.286 121.833 132.784 122.27 132.833 123.056Z" fill="black"/>
<path d="M134.799 125.781H135.555V123.613C135.555 122.449 135.953 121.873 136.759 121.873C136.898 121.873 137.057 121.902 137.226 121.962L137.485 121.276C137.316 121.216 137.147 121.186 136.968 121.186C136.291 121.186 135.874 121.505 135.476 122.261V121.336H134.799V125.781Z" fill="black"/>
<path d="M137.809 125.035C138.157 125.662 138.734 125.97 139.559 125.97C140.544 125.97 141.18 125.383 141.18 124.558C141.18 123.832 140.753 123.514 139.887 123.235C139.152 122.996 138.744 122.937 138.744 122.469C138.744 122.082 139.052 121.803 139.5 121.803C139.967 121.803 140.335 122.032 140.514 122.44L141.131 122.062C140.892 121.495 140.315 121.176 139.549 121.176C138.604 121.176 137.978 121.743 137.978 122.519C137.978 123.394 138.634 123.583 139.728 123.961C140.196 124.12 140.425 124.299 140.425 124.638C140.425 125.025 140.096 125.304 139.589 125.304C139.082 125.304 138.704 125.075 138.455 124.598L137.809 125.035Z" fill="black"/>
<path d="M142.366 125.781H143.122V121.336H142.366V125.781ZM142.187 119.197C142.187 119.516 142.436 119.754 142.744 119.754C143.052 119.754 143.301 119.516 143.301 119.207C143.301 118.899 143.052 118.64 142.744 118.64C142.436 118.64 142.187 118.889 142.187 119.197Z" fill="black"/>
<path d="M148.146 124.727C147.679 125.065 147.251 125.234 146.774 125.234C145.849 125.234 145.183 124.518 145.183 123.623C145.183 122.569 145.859 121.912 146.834 121.912C147.271 121.912 147.689 122.052 148.067 122.3V121.485C147.659 121.286 147.182 121.176 146.684 121.176C145.352 121.176 144.367 122.151 144.367 123.603C144.367 125.006 145.272 125.97 146.655 125.97C147.231 125.97 147.739 125.851 148.146 125.612V124.727Z" fill="black"/>
<path d="M149.203 125.781H149.959V123.484C149.959 122.996 149.959 122.629 150.217 122.31C150.466 122.002 150.854 121.833 151.301 121.833C152.097 121.833 152.485 122.27 152.485 123.166V125.781H153.241V122.758C153.241 121.753 152.604 121.176 151.57 121.176C150.874 121.176 150.337 121.445 149.949 122.022V118.252H149.203V125.781Z" fill="black"/>
<path d="M158.707 123.673V123.524C158.707 122.052 157.872 121.167 156.569 121.167C155.276 121.167 154.351 122.141 154.351 123.544C154.351 124.996 155.266 125.97 156.619 125.97C157.534 125.97 158.23 125.562 158.677 124.757L158.101 124.369C157.733 125.015 157.255 125.334 156.658 125.334C155.803 125.334 155.187 124.707 155.187 123.742V123.673H158.707ZM157.892 123.056H155.187C155.266 122.3 155.813 121.833 156.539 121.833C157.345 121.833 157.842 122.27 157.892 123.056Z" fill="black"/>
<path d="M159.858 125.781H160.614V123.613C160.614 122.449 161.011 121.873 161.817 121.873C161.956 121.873 162.115 121.902 162.284 121.962L162.543 121.276C162.374 121.216 162.205 121.186 162.026 121.186C161.35 121.186 160.932 121.505 160.534 122.261V121.336H159.858V125.781Z" fill="black"/>
<path d="M164.031 121.336H163.275V123.991C163.275 125.294 163.981 125.97 165.274 125.97C166.607 125.97 167.303 125.274 167.303 123.931V121.336H166.547V123.524C166.527 124.697 166.269 125.244 165.294 125.244C164.319 125.244 164.031 124.697 164.031 123.524V121.336Z" fill="black"/>
<path d="M168.774 125.781H169.529V123.484C169.529 122.996 169.529 122.629 169.788 122.31C170.037 122.002 170.425 121.833 170.872 121.833C171.668 121.833 172.056 122.27 172.056 123.166V125.781H172.811V122.758C172.811 121.753 172.175 121.176 171.141 121.176C170.444 121.176 169.907 121.445 169.529 122.022V121.336H168.774V125.781Z" fill="black"/>
<path d="M178.467 121.336H177.691V122.161C177.363 121.515 176.796 121.176 176.06 121.176C174.817 121.176 173.972 122.062 173.972 123.544C173.972 124.986 174.827 125.921 176.1 125.921C176.786 125.921 177.363 125.572 177.711 124.936V125.682C177.711 126.09 177.691 126.418 177.522 126.696C177.293 127.084 176.856 127.283 176.249 127.283C175.394 127.283 174.926 126.895 174.926 126.239V126.179H174.071C174.101 127.293 174.877 127.949 176.239 127.949C177.025 127.949 177.622 127.721 178.029 127.273C178.447 126.836 178.467 126.338 178.467 125.702V121.336ZM177.711 123.573C177.711 124.598 177.154 125.194 176.259 125.194C175.314 125.194 174.777 124.588 174.777 123.514C174.777 122.499 175.314 121.912 176.229 121.912C177.085 121.912 177.711 122.539 177.711 123.573Z" fill="black"/>
<defs>
<clipPath id="clip0">
<rect width="160" height="37.9798" fill="white" transform="translate(20 73)"/>
</clipPath>
</defs>
</svg>

<svg width="200" height="200" fill="none" xmlns="http://www.w3.org/2000/svg"><path fill="#fff" d="M0 0h200v200H0z"/><g clip-path="url(#clip0)" fill="#000"><path d="M25.818 81.97v9.616h.081c1.293-1.778 2.91-2.586 5.09-2.586 4.041 0 5.98 2.748 5.98 6.788v9.939h-5.656v-8.323c0-1.858-.242-3.879-2.586-3.879-2.262 0-2.99 1.94-2.99 3.88v8.322h-5.656V81.97h5.737zM50.95 95.222c-.243-1.535-1.698-2.586-3.233-2.586-1.616 0-2.99.89-3.394 2.586h6.627zm5.333 3.313h-11.96c0 2.344 1.212 3.637 3.556 3.637 1.212 0 2.1-.404 2.747-1.455h5.495c-.889 3.798-4.525 5.576-8.161 5.576-5.334 0-9.293-3.071-9.293-8.647 0-5.414 3.636-8.646 8.889-8.646 5.575 0 8.727 3.475 8.727 8.97v.565zm1.616 7.192h5.657V81.97h-5.657v23.757m16.485-7.919l3.798-8.323h6.384l-8.324 16.242h-3.717l-8.404-16.242h6.384l3.879 8.323zm21.091-2.586c-.243-1.535-1.697-2.586-3.233-2.586-1.616 0-2.99.89-3.394 2.586h6.627zm5.252 3.313h-11.96c0 2.344 1.213 3.637 3.556 3.637 1.212 0 2.101-.404 2.748-1.455h5.495c-.89 3.798-4.526 5.576-8.162 5.576-5.333 0-9.293-3.071-9.293-8.647C83.111 92.233 86.747 89 92 89c5.576 0 8.727 3.475 8.727 8.97v.565zm8.404 7.192h-5.656V94.252h-1.859v-4.767h1.859v-4.849h5.656v4.849h3.233v4.767h-3.233v11.475m9.94 0h-5.657V89.485h5.657v16.242zm.404-21.333c0 1.778-1.455 3.232-3.152 3.232-1.778 0-3.151-1.454-3.151-3.232 0-1.778 1.454-3.232 3.151-3.232 1.697 0 3.152 1.454 3.152 3.232zm7.111 13.253c0 2.02 1.374 3.636 3.636 3.636 2.344 0 3.637-1.616 3.637-3.636s-1.374-3.637-3.637-3.637c-2.262-.08-3.636 1.616-3.636 3.636zm12.848 8.08h-5.656v-1.778h-.081c-.97 1.617-2.99 2.344-4.848 2.344-4.768 0-8.081-4.04-8.081-8.647 0-4.606 3.313-8.646 8-8.646 1.858 0 3.798.727 4.929 2.101v-1.616h5.657v16.242m13.737-5.576l6.384-1.697 1.374-3.232-2.829-6.626-.646 1.616-4.283 9.939zm14.303-20.767l-2.667-6.06-6.464 1.454 2.586 6.141 6.545-1.535zm-9.859 8.242l.081-.242 2.586-5.98-2.586-5.818-10.101 23.919 4.606.808 5.414-12.687z"/><path d="M160.202 81.404l-.162-.323-2.343-5.576-.081.08 2.586 5.819zm-.566 17.939l-5.252 1.293 9.374 1.697-.97-2.424-3.152-.566zm-7.434 1.859l-1.778-.323h.081l-3.394-.647-2.101 5.172 21.818 3.96-2.586-6.061-12.04-2.101z"/><path d="M150.586 100.798l-3.475-.566 3.394.647.081-.081z"/><path d="M150.505 100.879h-.081l1.778.323-.081-.081-1.616-.242zm2.101.323l-.242-.081-.162.081 12.04 2.101v-.081l-11.636-2.02z"/><path d="M152.202 101.202l.162-.081h-.243l.081.081z"/><path d="M152.121 101.121l-1.535-.323-.081.081 1.616.242zm.243 0l.242.081-.242-.081zm8.808-19.394l1.616 3.717 10.747 25.051 6.384-1.859-12.202-28.444-3.232.727-3.313.808z"/><path d="M164.485 80.92l3.232-.728-3.232.727zm-5.98 6.626l3.232 7.595v.081l3.152 7.273 1.212 2.909 1.778 4.121 4.767.889-7.191-16.808-4.849-11.07-2.101 5.01z"/><path d="M161.737 95.222v-.08l-3.232-7.597-.081.081 3.313 7.596zm-1.131-12.687v-.08l-2.182 5.01.081.08 2.101-5.01z"/><path d="M158.424 87.626l.081-.08-.081-.081v.161zm6.465 14.869l1.212 2.909-1.212-2.909zm7.758 7.919l-7.192-16.808 7.192 16.808z"/></g><path d="M59.588 125.781h.845v-7.111h-.845v7.111zm2.484 0h.756v-2.297c0-.488 0-.855.258-1.174.249-.308.637-.477 1.085-.477.795 0 1.183.437 1.183 1.333v2.615h.756v-3.023c0-1.005-.637-1.582-1.671-1.582-.696 0-1.233.269-1.621.846v-3.77h-.746v7.529zm5.546 0h.756v-2.168c0-1.164.398-1.74 1.203-1.74.14 0 .299.029.468.089l.258-.686a1.521 1.521 0 00-.517-.09c-.676 0-1.094.319-1.492 1.075v-.925h-.676v4.445zm7.445-2.108v-.149c0-1.472-.835-2.357-2.138-2.357-1.293 0-2.218.974-2.218 2.377 0 1.452.915 2.426 2.268 2.426.915 0 1.61-.408 2.058-1.213l-.576-.388c-.368.646-.846.965-1.443.965-.855 0-1.472-.627-1.472-1.592v-.069h3.521zm-.815-.617h-2.706c.08-.756.627-1.223 1.353-1.223.806 0 1.303.437 1.353 1.223zm7.554-1.223l-1.014-.448c-.647-.278-.955-.636-.955-1.143 0-.607.448-1.035 1.084-1.035.507 0 .895.279 1.204.816l.696-.448c-.348-.706-.985-1.074-1.84-1.074-1.184 0-2 .756-2 1.751 0 .865.458 1.481 1.403 1.879l.865.368c.736.318 1.104.786 1.104 1.422 0 .776-.567 1.323-1.422 1.323-.716 0-1.203-.447-1.412-1.313l-.766.378c.269 1.055 1.054 1.651 2.178 1.651 1.372 0 2.278-.875 2.278-2.178 0-.895-.468-1.551-1.403-1.949zm5.855 2.894c-.468.338-.895.507-1.373.507-.925 0-1.59-.716-1.59-1.611 0-1.054.675-1.711 1.65-1.711.438 0 .856.14 1.233.388v-.815a3.168 3.168 0 00-1.382-.309c-1.333 0-2.317.975-2.317 2.427 0 1.403.905 2.367 2.287 2.367.577 0 1.084-.119 1.492-.358v-.885zm1.056 1.054h.756v-2.297c0-.488 0-.855.259-1.174.249-.308.636-.477 1.084-.477.796 0 1.183.437 1.183 1.333v2.615h.756v-3.023c0-1.005-.636-1.582-1.67-1.582-.697 0-1.234.269-1.622.846v-3.77h-.746v7.529zm8.262-4.605h-.12l-1.352 3.193-1.184-3.033h-.845l1.979 4.724 1.462-3.412 1.462 3.412 1.979-4.724h-.855l-1.194 3.033-1.332-3.193zm8.129 2.497v-.149c0-1.472-.835-2.357-2.138-2.357-1.293 0-2.218.974-2.218 2.377 0 1.452.915 2.426 2.267 2.426.915 0 1.612-.408 2.059-1.213l-.577-.388c-.368.646-.845.965-1.442.965-.855 0-1.472-.627-1.472-1.592v-.069h3.521zm-.816-.617h-2.705c.08-.756.627-1.223 1.353-1.223.805 0 1.303.437 1.352 1.223zm1.996 2.725h.756v-4.445h-.756v4.445zm-.179-6.584a.55.55 0 00.557.557.547.547 0 00.557-.547.565.565 0 00-.557-.567.557.557 0 00-.557.557zm1.922 6.584h3.868v-.666h-2.526l2.546-3.779h-3.729v.666h2.387l-2.546 3.779zm8.878-2.108v-.149c0-1.472-.836-2.357-2.139-2.357-1.293 0-2.218.974-2.218 2.377 0 1.452.915 2.426 2.268 2.426.915 0 1.611-.408 2.059-1.213l-.577-.388c-.368.646-.845.965-1.442.965-.855 0-1.472-.627-1.472-1.592v-.069h3.521zm-.816-.617h-2.705c.079-.756.626-1.223 1.353-1.223.805 0 1.302.437 1.352 1.223zm1.966 2.725h.756v-2.168c0-1.164.398-1.74 1.203-1.74.14 0 .299.029.468.089l.258-.686a1.52 1.52 0 00-.517-.09c-.676 0-1.094.319-1.492 1.075v-.925h-.676v4.445zm8.519.279l2.993-7.39h-.915l-2.078 5.44-2.089-5.44h-.915l3.004 7.39zm7.075-2.387v-.149c0-1.472-.835-2.357-2.138-2.357-1.293 0-2.218.974-2.218 2.377 0 1.452.915 2.426 2.267 2.426.915 0 1.612-.408 2.059-1.213l-.577-.388c-.368.646-.845.965-1.442.965-.855 0-1.472-.627-1.472-1.592v-.069h3.521zm-.816-.617h-2.705c.08-.756.627-1.223 1.353-1.223.805 0 1.303.437 1.352 1.223zm1.966 2.725h.756v-2.168c0-1.164.398-1.74 1.204-1.74.139 0 .298.029.467.089l.259-.686a1.52 1.52 0 00-.517-.09c-.677 0-1.094.319-1.492 1.075v-.925h-.677v4.445zm3.01-.746c.348.627.925.935 1.75.935.985 0 1.621-.587 1.621-1.412 0-.726-.427-1.044-1.293-1.323-.735-.239-1.143-.298-1.143-.766 0-.387.308-.666.756-.666.467 0 .835.229 1.014.637l.617-.378c-.239-.567-.816-.886-1.582-.886-.945 0-1.571.567-1.571 1.343 0 .875.656 1.064 1.75 1.442.468.159.697.338.697.677 0 .387-.329.666-.836.666-.507 0-.885-.229-1.134-.706l-.646.437zm4.557.746h.756v-4.445h-.756v4.445zm-.179-6.584a.55.55 0 00.557.557.547.547 0 00.557-.547.565.565 0 00-.557-.567.557.557 0 00-.557.557zm5.959 5.53c-.467.338-.895.507-1.372.507-.925 0-1.591-.716-1.591-1.611 0-1.054.676-1.711 1.651-1.711.437 0 .855.14 1.233.388v-.815a3.169 3.169 0 00-1.383-.309c-1.332 0-2.317.975-2.317 2.427 0 1.403.905 2.367 2.288 2.367.576 0 1.084-.119 1.491-.358v-.885zm1.057 1.054h.756v-2.297c0-.488 0-.855.258-1.174.249-.308.637-.477 1.084-.477.796 0 1.184.437 1.184 1.333v2.615h.756v-3.023c0-1.005-.637-1.582-1.671-1.582-.696 0-1.233.269-1.621.846v-3.77h-.746v7.529zm9.504-2.108v-.149c0-1.472-.835-2.357-2.138-2.357-1.293 0-2.218.974-2.218 2.377 0 1.452.915 2.426 2.268 2.426.915 0 1.611-.408 2.058-1.213l-.576-.388c-.368.646-.846.965-1.443.965-.855 0-1.471-.627-1.471-1.592v-.069h3.52zm-.815-.617h-2.705c.079-.756.626-1.223 1.352-1.223.806 0 1.303.437 1.353 1.223zm1.966 2.725h.756v-2.168c0-1.164.397-1.74 1.203-1.74.139 0 .298.029.467.089l.259-.686a1.52 1.52 0 00-.517-.09c-.676 0-1.094.319-1.492 1.075v-.925h-.676v4.445zm4.173-4.445h-.756v2.655c0 1.303.706 1.979 1.999 1.979 1.333 0 2.029-.696 2.029-2.039v-2.595h-.756v2.188c-.02 1.173-.278 1.72-1.253 1.72-.975 0-1.263-.547-1.263-1.72v-2.188zm4.743 4.445h.755v-2.297c0-.488 0-.855.259-1.174.249-.308.637-.477 1.084-.477.796 0 1.184.437 1.184 1.333v2.615h.755v-3.023c0-1.005-.636-1.582-1.67-1.582-.697 0-1.234.269-1.612.846v-.686h-.755v4.445zm9.693-4.445h-.776v.825c-.328-.646-.895-.985-1.631-.985-1.243 0-2.088.886-2.088 2.368 0 1.442.855 2.377 2.128 2.377.686 0 1.263-.349 1.611-.985v.746c0 .408-.02.736-.189 1.014-.229.388-.666.587-1.273.587-.855 0-1.323-.388-1.323-1.044v-.06h-.855c.03 1.114.806 1.77 2.168 1.77.786 0 1.383-.228 1.79-.676.418-.437.438-.935.438-1.571v-4.366zm-.756 2.237c0 1.025-.557 1.621-1.452 1.621-.945 0-1.482-.606-1.482-1.68 0-1.015.537-1.602 1.452-1.602.856 0 1.482.627 1.482 1.661z" fill="#000"/><defs><clipPath id="clip0"><path fill="#fff" transform="translate(20 73)" d="M0 0h160v37.98H0z"/></clipPath></defs></svg>
